assets/images/svg/excellent.svg

<svg width="87" height="87" viewBox="0 0 87 87" fill="none" xmlns="http://www.w3.org/2000/svg">
<path d="M86.555 43.278C86.555 67.18 67.179 86.555 43.277 86.555C19.375 86.555 0 67.18 0 43.278C0 19.375 19.375 0 43.277 0C67.179 0 86.555 19.375 86.555 43.278Z" fill="#FFCE00"/>
<path d="M64.1177 18.8767C57.0587 5.41967 43.9977 14.9617 46.2847 25.0197C48.0907 32.9217 56.7627 44.1357 56.7627 44.1357C58.0127 43.6967 70.0977 39.3357 75.8627 33.6357C83.1957 26.3837 77.3057 11.3187 64.1177 18.8767Z" fill="#CC342F"/>
<path d="M21.9527 18.8767C29.0137 5.41967 42.0747 14.9617 39.7847 25.0197C37.9827 32.9217 29.3077 44.1357 29.3077 44.1357C28.0577 43.6967 15.9727 39.3357 10.2087 33.6357C2.87669 26.3837 8.76671 11.3187 21.9527 18.8767Z" fill="#CC342F"/>
<path d="M26.1619 52.3056C24.9037 51.9168 23.7211 53.1907 24.087 54.5514C26.2478 62.5779 34.5658 68.5605 44.5194 68.5605C54.4753 68.5605 62.7932 62.5779 64.9517 54.5514C65.3188 53.1907 64.135 51.9158 62.8769 52.3056C57.3575 54.0171 51.1226 54.9804 44.5194 54.9804C37.9185 54.9804 31.6835 54.0171 26.1619 52.3056Z" fill="#562912"/>
<path d="M44.5186 60.3994C40.1413 60.3994 36.3762 62.8896 34.7207 66.4526C37.6459 67.7927 40.9777 68.5616 44.5186 68.5616C48.0642 68.5616 51.3937 67.7927 54.3166 66.4526C52.6599 62.8896 48.9006 60.3994 44.5186 60.3994Z" fill="#CC342F"/>
</svg>

<svg xmlns="http://www.w3.org/2000/svg" width="87" height="87" fill="none" viewBox="0 0 87 87"><path fill="#ffce00" d="M86.555 43.278c0 23.902-19.376 43.277-43.278 43.277S0 67.18 0 43.278 19.375 0 43.277 0s43.278 19.375 43.278 43.278"/><path fill="#cc342f" d="M64.118 18.877c-7.06-13.457-20.12-3.915-17.833 6.143 1.806 7.902 10.478 19.116 10.478 19.116 1.25-.44 13.335-4.8 19.1-10.5 7.333-7.252 1.443-22.317-11.745-14.76M21.953 18.877c7.06-13.457 20.122-3.915 17.832 6.143-1.802 7.902-10.477 19.116-10.477 19.116-1.25-.44-13.335-4.8-19.1-10.5-7.331-7.252-1.441-22.317 11.745-14.76"/><path fill="#562912" d="M26.162 52.306c-1.258-.39-2.44.885-2.075 2.245 2.16 8.027 10.479 14.01 20.432 14.01 9.956 0 18.274-5.983 20.433-14.01.367-1.36-.817-2.635-2.075-2.245-5.52 1.711-11.754 2.674-18.358 2.674-6.6 0-12.835-.963-18.357-2.674"/><path fill="#cc342f" d="M44.519 60.4c-4.378 0-8.143 2.49-9.798 6.053 2.925 1.34 6.257 2.109 9.798 2.109 3.545 0 6.875-.77 9.798-2.11C52.66 62.89 48.9 60.4 44.519 60.4"/></svg>
